www/assets/icons/rice_bowl.svg

<svg xmlns="http://www.w3.org/2000/svg" width="24" height="24" viewBox="0 0 24 24" fill='currentColor'><path d="M22 12c0-5.52-4.48-10-10-10S2 6.48 2 12c0 3.69 2.47 6.86 6 8.25V22h8v-1.75c3.53-1.39 6-4.56 6-8.25m-2 0h-4V5.08c2.39 1.39 4 3.97 4 6.92m-6-7.74V12h-4V4.26c.64-.16 1.31-.26 2-.26s1.36.1 2 .26M4 12c0-2.95 1.61-5.53 4-6.92V12z"/></svg>

<svg width="24" height="24" viewBox="0 0 24 24" xmlns="http://www.w3.org/2000/svg" fill='currentColor'><path d="M22 12C22 6.48 17.52 2 12 2C6.48 2 2 6.48 2 12C2 15.69 4.47 18.86 8 20.25V22H16V20.25C19.53 18.86 22 15.69 22 12ZM20 12H16V5.08C18.39 6.47 20 9.05 20 12ZM14 4.26V12H10V4.26C10.64 4.1 11.31 4 12 4C12.69 4 13.36 4.1 14 4.26ZM4 12C4 9.05 5.61 6.47 8 5.08V12H4Z"/></svg>
